!!! OTL: Berkowitz481
!!! Chapter: 1
!!! Section: IV
!!! Page: 120
!!! Mode: 
!!! Encoder: DJB
**kern
*staff1
*I"Piano
=1-
*clefG2
*k[b-e-a-]
*E-:
*M3/4
4r
4r
8an/L
8b-/J
=2
4.a-/
8g/
8f#/L
8g/J
=3
4.f/
8e-/
8d/L
8e-/J
=4
8c-/L
8e-/J
8a-\L
8ee-\J
8dd-\L
8cc-\J
=5
4b-\
4g/
8f#/L
8g/J
=6
4.dd\
8cc\
8bn\L
8cc\J
=7
2f/
8g/L
8a-/J
=8
4.cc\
8b-\
8an/L
8b-/J
=9
2e-/
8f/L
8g/J
=10
!!linebreak:original
8b-/L
8a-/J
4ee-\
4cc-\
=11
4cc-\
4b-\
8r
8B-/
=12
4b-\
4a-/
8r
8B-/
=13
4a-/
4g/
8r
8en/
=14
8f/L
8a-/J
4cc\
4dd\
=15
4dd\
2ee-\
==
*-
